Numix-Light-GalliumOS/16/status/avatar-default.svg

<?xml version="1.0" encoding="UTF-8" standalone="no"?>
<svg
   xmlns:dc="http://purl.org/dc/elements/1.1/"
   xmlns:cc="http://creativecommons.org/ns#"
   xmlns:rdf="http://www.w3.org/1999/02/22-rdf-syntax-ns#"
   xmlns:svg="http://www.w3.org/2000/svg"
   xmlns="http://www.w3.org/2000/svg"
   xmlns:sodipodi="http://sodipodi.sourceforge.net/DTD/sodipodi-0.dtd"
   xmlns:inkscape="http://www.inkscape.org/namespaces/inkscape"
   width="16"
   height="16"
   viewBox="0 0 16 16"
   id="svg3002"
   version="1.1"
   inkscape:version="0.91 r"
   sodipodi:docname="avatar-default.svg">
  <metadata
     id="metadata3026">
    <rdf:RDF>
      <cc:Work
         rdf:about="">
        <dc:format>image/svg+xml</dc:format>
        <dc:type
           rdf:resource="http://purl.org/dc/dcmitype/StillImage" />
      </cc:Work>
    </rdf:RDF>
  </metadata>
  <sodipodi:namedview
     pagecolor="#ffffff"
     bordercolor="#666666"
     borderopacity="1"
     objecttolerance="10"
     gridtolerance="10"
     guidetolerance="10"
     inkscape:pageopacity="0"
     inkscape:pageshadow="2"
     inkscape:window-width="1280"
     inkscape:window-height="998"
     id="namedview3024"
     showgrid="false"
     inkscape:zoom="29.5"
     inkscape:cx="4.0958495"
     inkscape:cy="4.912674"
     inkscape:window-x="0"
     inkscape:window-y="0"
     inkscape:window-maximized="1"
     inkscape:current-layer="svg3002" />
  <defs
     id="defs3004" />
  <path
     style="fill:#353535;fill-opacity:1"
     d="M 7.269531 2.910156 L 8.730469 2.910156 C 10.925781 2.910156 10.878906 5.136719 10.878906 5.136719 L 10.878906 7.046875 C 10.878906 7.773438 9.601562 9.273438 9.601562 9.273438 L 9.601562 10.226562 L 12.480469 11.816406 L 12.480469 13.089844 L 3.519531 13.089844 L 3.519531 11.816406 L 6.398438 10.226562 L 6.398438 9.273438 C 6.398438 9.273438 5.113281 7.773438 5.121094 7.046875 L 5.121094 5.136719 C 5.121094 5.136719 5.074219 2.910156 7.269531 2.910156 Z "
     id="path3022" />
</svg>

<svg xmlns="http://www.w3.org/2000/svg" viewBox="0 0 16 16">
 <path d="m 7.27 2.91 l 1.461 0 c 2.195 0 2.148 2.227 2.148 2.227 l 0 1.91 c 0 0.727 -1.277 2.227 -1.277 2.227 l 0 0.953 l 2.879 1.59 l 0 1.273 l -8.961 0 l 0 -1.273 l 2.879 -1.59 l 0 -0.953 c 0 0 -1.285 -1.5 -1.277 -2.227 l 0 -1.91 c 0 0 -0.047 -2.227 2.148 -2.227 Z" style="fill:#353535;fill-opacity:1"/>
</svg>
